src/16/actions/document-revert.svg

<svg xmlns="http://www.w3.org/2000/svg" viewBox="0 0 16 16"><path d="M3 2v12h6l3-3V2H3zm1 1h7v7H8v3H4V3zm11 4l-2 2 2 2V7z" fill="currentColor" color="#5d656b"/></svg>

<svg xmlns="http://www.w3.org/2000/svg" viewBox="0 0 16 16">
  <defs id="defs3051">
    <style type="text/css" id="current-color-scheme">
      .ColorScheme-Text {
        color:#5d656b;
      }
      </style>
  </defs>
 <path style="fill:currentColor;fill-opacity:1;stroke:none" 
     d="M 3 2 L 3 14 L 8 14 L 9 14 L 12 11 L 12 10 L 12 2 L 3 2 z M 4 3 L 11 3 L 11 10 L 8 10 L 8 13 L 4 13 L 4 3 z M 15 7 L 13 9 L 15 11 L 15 7 z "
     class="ColorScheme-Text"
     />
</svg>
